**kern	**silbe	**kern	**silbe
*ICvox	*	*ICvox	*
=1	=1	=1	=1
*F:	*	*F:	*
*M4/4	*	*M4/4	*
*clefG2	*	*clefG2	*
1r	.	1r	.
=2	=2	=2	=2
1r	.	1r	.
=3	=3	=3	=3
1r	.	1r	.
=4	=4	=4	=4
1r	.	1r	.
=5	=5	=5	=5
1r	.	1r	.
=6	=6	=6	=6
1r	.	1r	.
=7	=7	=7	=7
1r	.	1r	.
=8	=8	=8	=8
1r	.	1r	.
=9	=9	=9	=9
*C:	*	*C:	*
*M12/8	*	*M12/8	*
1.r	.	1.r	.
=10	=10	=10	=10
1.r	.	1.r	.
=11	=11	=11	=11
1.r	.	1.r	.
=12	=12	=12	=12
1.r	.	1.r	.
=13	=13	=13	=13
1.r	.	1.r	.
=14	=14	=14	=14
1.r	.	1.r	.
=15	=15	=15	=15
1.r	.	1.r	.
=16	=16	=16	=16
1.r	.	1.r	.
=17	=17	=17	=17
2.r	.	1.r	.
4.r	.	.	.
4r	.	.	.
8c	It's	.	.
=18	=18	=18	=18
*M6/4	*	*M6/4	*
8d	fun-	1.r	.
4.d	-ny	.	.
4d	that	.	.
2.c	way	.	.
=19	=19	=19	=19
4c	You	1.r	.
4c	can	.	.
4f	get	.	.
4g	used	.	.
4e	to	.	.
8c	the	.	.
8r	.	.	.
=20	=20	=20	=20
4e-	tears	1.r	.
4e-	and	.	.
8f	the	.	.
8c	pain	.	.
4.d	_	.	.
4.r	.	.	.
=21	=21	=21	=21
2a	What	1.r	.
4a	a	.	.
4g	child	.	.
4f	will	.	.
8e	be-	.	.
[8f	-lieve	.	.
=22	=22	=22	=22
2.f]	_	1.r	.
4r	.	.	.
4.a	You	.	.
16g	ne-	.	.
16f	-ver	.	.
=23	=23	=23	=23
4e	loved	1.r	.
[4f	me	.	.
1f]	_	.	.
=24	=24	=24	=24
*M12/8	*	*M12/8	*
1.r	.	4.f	You
.	.	4.g	can't
.	.	4.b-	hurt
.	.	4.a	me
=25	=25	=25	=25
4.r	.	[2.e	now
4.r	.	.	.
4.r	.	4.e]	_
8d	I	4.r	.
8d	got	.	.
8c	a-	.	.
=26	=26	=26	=26
8d	-way	1.r	.
8c	from	.	.
[8c	you	.	.
4.c_	_	.	.
8c]	_	.	.
8r	.	.	.
8r	.	.	.
8e	I	.	.
8d	ne-	.	.
8c	-ver	.	.
=27	=27	=27	=27
4d	thought	1.r	.
[8B	I	.	.
4B]	_	.	.
[8d	would	.	.
4.d_	_	.	.
8d]	_	.	.
8r	.	.	.
8r	.	.	.
=28	=28	=28	=28
1.r	.	4.f	You
.	.	4.g	can't
.	.	4.b-	make
.	.	4.a	me
=29	=29	=29	=29
4.r	.	[2.e	cry
4.r	.	.	.
8r	.	4.e]	_
8r	.	.	.
8c	You	.	.
8d	once	4.r	.
8d	had	.	.
8c	the	.	.
=30	=30	=30	=30
4d	po-	1.r	.
[8c	-wer	.	.
4.c_	_	.	.
8c]	_	.	.
8r	.	.	.
8r	.	.	.
8e	I	.	.
8d	ne-	.	.
8c	-ver	.	.
=31	=31	=31	=31
4d	felt	1.r	.
[8B	so	.	.
8B]	_	.	.
[4d	good	.	.
8.d]	_	.	.
16c	a-	.	.
4d	-bout	.	.
4d	my-	.	.
=32	=32	=32	=32
*M6/4	*	*M6/4	*
[1c	-self	1.r	.
4c]	_	.	.
4r	.	.	.
=33	=33	=33	=33
4d	Seems	1.r	.
4d	like	.	.
8d	yes-	.	.
8c	-ter-	.	.
2c	-day	.	.
4r	.	.	.
=34	=34	=34	=34
4c	I	1.r	.
4c	lay	.	.
4f	down	.	.
4g	next	.	.
4e	to	.	.
8c	your	.	.
8r	.	.	.
=35	=35	=35	=35
4e-	boots	1.r	.
4e-	and	.	.
4f	I	.	.
2d	prayed	.	.
4r	.	.	.
=36	=36	=36	=36
2a	For	1.r	.
4a	your	.	.
4g	ang-	.	.
4f	-er	.	.
8e	to	.	.
[8f	end	.	.
=37	=37	=37	=37
2.f]	_	1.r	.
8r	.	.	.
16r	.	.	.
16g	Oh	.	.
4a	_	.	.
8g	fa-	.	.
8f	-ther	.	.
=38	=38	=38	=38
4e	I	1.r	.
4f	have	.	.
[4f	sinned	.	.
2f]	_	.	.
4r	.	.	.
=39	=39	=39	=39
*M12/8	*	*M12/8	*
1.r	.	4.f	You
.	.	4.g	can't
.	.	4.b-	hurt
.	.	4.a	me
=40	=40	=40	=40
2.r	.	[2.e	now
4.r	.	4.e]	_
8d	I	4.r	.
8d	got	.	.
8c	a-	.	.
=41	=41	=41	=41
8d	-way	1.r	.
8c	from	.	.
[8c	you	.	.
4.c_	_	.	.
8c]	_	.	.
8r	.	.	.
8r	.	.	.
8e	I	.	.
8d	ne-	.	.
8c	-ver	.	.
=42	=42	=42	=42
4d	thought	1.r	.
[8B	I	.	.
4B]	_	.	.
[8d	would	.	.
4.d_	_	.	.
8d]	_	.	.
4r	.	.	.
=43	=43	=43	=43
1.r	.	4.f	You
.	.	4.g	can't
.	.	4.b-	make
.	.	4.a	me
=44	=44	=44	=44
2.r	.	[2.e	cry
8r	.	4.e]	_
8r	.	.	.
8c	You	.	.
8d	once	4.r	.
8d	had	.	.
8c	the	.	.
=45	=45	=45	=45
4d	po-	1.r	.
[8c	-wer	.	.
4.c_	_	.	.
8c]	_	.	.
8r	.	.	.
8r	.	.	.
8e	I	.	.
8d	ne-	.	.
8c	-ver	.	.
=46	=46	=46	=46
4d	felt	1.r	.
[8B	so	.	.
8B]	_	.	.
[4d	good	.	.
8.d]	_	.	.
16c	a-	.	.
4d	-bout	.	.
4d	my-	.	.
=47	=47	=47	=47
[1c	-self	1.r	.
4c]	_	.	.
4r	.	.	.
=48	=48	=48	=48
1.r	.	1.r	.
=49	=49	=49	=49
1.r	.	1.r	.
=50	=50	=50	=50
1.r	.	1.r	.
=51	=51	=51	=51
1.r	.	1.r	.
=52	=52	=52	=52
1.r	.	1.r	.
=53	=53	=53	=53
1.r	.	1.r	.
=54	=54	=54	=54
1.r	.	1.r	.
=55	=55	=55	=55
2.B	Oh	1.r	.
4B	fa-	.	.
4G	-ther	.	.
8r	.	.	.
8r	.	.	.
=56	=56	=56	=56
8B	You	8d	You
8B	ne-	8d	ne-
8B	-ver	8d	-ver
8c	wan-	8e	wan-
8B	-ted	8d	-ted
8B	to	8d	to
8B	live	8d	live
8G	that	8B	that
4G	way	4B	way
8r	.	8r	.
8r	.	8r	.
=57	=57	=57	=57
8B	You	8d	You
8B	ne-	8d	ne-
8B	-ver	8d	-ver
8c	wan-	8e	wan-
8B	-ted	8d	-ted
8B	to	8d	to
4B	hurt	4d	hurt
4G	me	4B	me
8r	.	8r	.
8r	.	8r	.
=58	=58	=58	=58
8A	Why	8c	Why
8A	am	8c	am
8A	I	8c	I
8B	run-	8d	run-
8A	-ning	8c	-ning
8G	a-	8c	a-
4.G	-way	4.c	-way
4.r	.	4.r	.
=59	=59	=59	=59
2.B	Oh	1.r	.
4B	fa-	.	.
4G	-ther	.	.
8r	.	.	.
8r	.	.	.
=60	=60	=60	=60
8B	You	8d	You
8B	ne-	8d	ne-
8B	-ver	8d	-ver
8c	wan-	8e	wan-
8B	-ted	8d	-ted
8B	to	8d	to
8B	live	8d	live
8G	that	8B	that
4G	way	4B	way
8r	.	8r	.
8r	.	8r	.
=61	=61	=61	=61
8B	You	8d	You
8B	ne-	8d	ne-
8B	-ver	8d	-ver
8c	wan-	8e	wan-
8B	-ted	8d	-ted
8B	to	8d	to
4B	hurt	4d	hurt
4G	me	4B	me
8r	.	8r	.
8r	.	8r	.
=62	=62	=62	=62
8A	Why	8c	Why
8A	am	8c	am
8A	I	8c	I
8B	run-	8d	run-
8A	-ning	8c	-ning
8G	a-	8c	a-
2.G	-way	2.c	-way
=63	=63	=63	=63
*M6/4	*	*M6/4	*
1.r	.	1.r	.
=64	=64	=64	=64
4d	May-	1.r	.
4d	-be	.	.
8d	some-	.	.
8c	_	.	.
2c	-day	.	.
4r	.	.	.
=65	=65	=65	=65
4c	When	1.r	.
4c	I	.	.
4f	look	.	.
4g	back	.	.
4e	I'll	.	.
8c	be	.	.
8r	.	.	.
=66	=66	=66	=66
4e-	a-	1.r	.
4e-	-ble	.	.
8f	to	.	.
8c	say	.	.
2d	_	.	.
4r	.	.	.
=67	=67	=67	=67
2a	You	1.r	.
8a	did-	.	.
8a	-'nt	.	.
4g	mean	.	.
4f	to	.	.
8e	be	.	.
[8f	cruel	.	.
=68	=68	=68	=68
2.f]	_	1.r	.
8r	.	.	.
4a	Some-	.	.
8g	-bo-	.	.
8f	-dy	.	.
[8e	hurt	.	.
=69	=69	=69	=69
8e]	_	1.r	.
4f	you	.	.
[4.f	too	.	.
2.f]	_	.	.
=70	=70	=70	=70
*M12/8	*	*M12/8	*
4.f	You	4.b-	You
4.g	can't	4.b-	can't
4.b-	hurt	4.b-	hurt
4.a	me	4.cc	me
=71	=71	=71	=71
[2.e	now	[2.g	now
4.e]	_	4.g]	_
8d	I	4.r	.
8d	got	.	.
8c	a-	.	.
=72	=72	=72	=72
8d	-way	1.r	.
8c	from	.	.
[8c	you	.	.
4.c_	_	.	.
8c]	_	.	.
8r	.	.	.
8r	.	.	.
8e	I	.	.
8d	ne-	.	.
8c	-ver	.	.
=73	=73	=73	=73
4d	thought	1.r	.
[8B	I	.	.
4B]	_	.	.
[8d	would	.	.
4.d_	_	.	.
8d]	_	.	.
8r	.	.	.
8r	.	.	.
=74	=74	=74	=74
4.f	You	4.b-	You
4.g	can't	4.b-	can't
4.b-	make	4.b-	make
4.a	me	4.cc	me
=75	=75	=75	=75
[2.e	cry	[2.cc	cry
4e]	_	4.cc]	_
8c	You	.	.
8d	once	4.r	.
8d	had	.	.
8c	the	.	.
=76	=76	=76	=76
4d	po-	1.r	.
[8c	-wer	.	.
4.c_	_	.	.
8c]	_	.	.
8r	.	.	.
8r	.	.	.
8e	I	.	.
8d	ne-	.	.
8c	-ver	.	.
=77	=77	=77	=77
4d	felt	1.r	.
[8B	so	.	.
8B]	_	.	.
[4d	good	.	.
4.d_	_	.	.
8d]	_	.	.
8r	.	.	.
8r	.	.	.
=78	=78	=78	=78
4.f	You	4.b-	You
4.g	can't	4.b-	can't
4.b-	hurt	4.b-	hurt
4.a	me	4.cc	me
=79	=79	=79	=79
[2.e	now	[2.g	now
4.e]	_	4.g]	_
8d	I	4.r	.
8d	got	.	.
8c	a-	.	.
=80	=80	=80	=80
8d	-way	1.r	.
8c	from	.	.
[8c	you	.	.
4.c_	_	.	.
8c]	_	.	.
8r	.	.	.
8r	.	.	.
8e	I	.	.
8d	ne-	.	.
8c	-ver	.	.
=81	=81	=81	=81
4d	thought	1.r	.
[8B	I	.	.
4B]	_	.	.
[8d	would	.	.
4.d_	_	.	.
8d]	_	.	.
8r	.	.	.
8r	.	.	.
=82	=82	=82	=82
4.f	You	4.b-	You
4.g	can't	4.b-	can't
4.b-	make	4.b-	make
4.a	me	4.cc	me
=83	=83	=83	=83
[2.e	cry	[2.cc	cry
4e]	_	4.cc]	_
8c	You	.	.
8d	once	4.r	.
8d	had	.	.
8c	the	.	.
=84	=84	=84	=84
4d	po-	1.r	.
[8c	-wer	.	.
4.c_	_	.	.
8c]	_	.	.
8r	.	.	.
8r	.	.	.
8e	I	.	.
8d	ne-	.	.
8c	-ver	.	.
=85	=85	=85	=85
4d	felt	1.r	.
[8B	so	.	.
8B]	_	.	.
[4d	good	.	.
8.d]	_	.	.
16c	a-	.	.
4d	-bout	.	.
4d	my-	.	.
=86	=86	=86	=86
1.f	-self	1.r	.
=87	=87	=87	=87
1.e	_	1.r	.
=88	=88	=88	=88
1.r	.	1.r	.
=89	=89	=89	=89
1.r	.	1.r	.
=90	=90	=90	=90
1.r	.	1.r	.
=91	=91	=91	=91
1.r	.	1.r	.
=92	=92	=92	=92
1.r	.	1.r	.
=93	=93	=93	=93
1.r	.	1.r	.
=94	=94	=94	=94
1.r	.	1.r	.
=95	=95	=95	=95
1.r	.	1.r	.
=96	=96	=96	=96
1.r	.	1.r	.
*-	*-	*-	*-
!!!ENC: Nathaniel Condit-Schultz